X: 1
T: Khaen Lao Krathop Mai
C: trad. Thailand
O: arr. Aney Reiner / Rustic Roots
R: slow air
S: https://www.patreon.com/posts/rustic-roots-27198819
Z: 2020 John Chambers <jc:trillian.mit.edu>
M: 4/4
L: 1/8
K: Am
"^Intro"[|]\
G4 | "C"AGAG AGAc | AGAG AGAc | GAcA c3d | edcA c3d | cBAG A4 |
"^Tune"|:\
AGAc e4 | e2g2 A4 | A2g2 d4 | edec d2g2 | edec d2(cd) | eedc A2ed | eged cAcd | cBAG A4 :|
